X:1
T: Paddy McFadden
C:
R:Jig
Q:180
K:Em
M:6/8
L:1/16
|:FA|B2A2B2 E2F2E2|B2A2F2 d4B2|A2F2A2 D2E2D2|F2D2F2 A2F2A2|
B2A2B2 E2F2E2|B2A2F2 d4B2|e2d2B2 A2F2D2|E2F2E2 E4:|
|:FA|B2e2f2 e2f2d2|B2A2F2 d4B2|e2d2B2 A4A2|e2d2B2 A4A2|
B2e2f2 e2f2d2|B2A2F2 d4B2|e2d2B2 A2F2D2|E2F2E2 E4:|
